X:1
T:Now Israel may say (Ps 124)
T:Giles Farnaby
T:Source : The Whole Book of Psalms---London---Musical Antiquarian Society---1844. First publication : London---Th.Est(e)---1592. Editor : André Vierendeels (15/09/16).
T:Now Israel may say (Ps 124)
T:©
T:©
T:©
C:Giles Farnaby
Z:©
%%score [ 1 2 3 4 ]
L:1/8
Q:1/4=106
M:4/4
K:C
V:1 treble nm="Soprano 1" snm="S 1"
V:2 treble nm="Soprano 2" snm="S 2"
V:3 treble-8 nm="Tenor" snm="T"
V:4 bass nm="Bass" snm="B"
V:1
 c4 B2 c2 | d4 c2 e2 | f4 e2 d2 |[M:2/4] e4 || c4 |[M:4/4] d2 e2 f4 | e4 d2 c2 | B2 A2 ^G4 || %8
w: Now Is- ra-|el may stay|and that tru-|ly,|if|that the Lord|had not our|cause main- tained,|
 e4 e2 e2 | e4 e2 f2- | f2 d2 ^c2 d2 |[M:2/4] ^c4 || g3 f |[M:4/4] e2 d3 c c2- | c2 B2 c2 e2 | %15
w: if that the|Lord had not|_ our right sus-|tain'd,|when _|all the _ world|_ a- gainst us|
 d2 d2 d4 || c4 B2 e2 | d4 e4 | d2 c2 c2 B2 | c8 |] %20
w: fu- rious- ly,|made their up-|roars and|said we should all|die.|
V:2
 E4 G2 G2 | A4 A2 G2 | A4 G2 G2 |[M:2/4] G4 || G4 |[M:4/4] _B2 B2 c4 | c4 A2 G2 | G2 E2 E4 || %8
w: Now Is- ra-|el may stay|and that tru-|ly,|if|that the Lord|had not our|cause main- tained,|
 c2 B3 A A2- | A2 ^G2 A4 | A2 A4 G2 |[M:2/4] A4 || B4 |[M:4/4] B3 A G4 | G4 G2 c2 | B2 A2 B4 || %16
w: if that the Lord|_ had not|our right sus-|tain'd,|when|all the world|a- gainst us|fu- rious- ly|
 G4 G2 G2 | G4 G3 _B | A2 A2 G3 F | E8 |] %20
w: made their up-|roars and _|said we should all|die.|
V:3
 c4 d2 e2 | f4 e4 | d2 c2 c2 B2 |[M:2/4] c4 || e4 |[M:4/4] f2 g2 a4 | g4 f2 e2 | d2 c2 B4 || %8
w: Now Is- ra-|el may|stay and that tru-|ly,|if|that the Lord|had not our|cause main- tained,|
"^-natural" G4 c2 c2 | B4 c4 | d2 f2 e2 d2 |[M:2/4] e4 || g4 |[M:4/4] g2 f2 e4 | d4 e2 g2 | %15
w: if that the|Lord had|not our right sus-|tain'd,|when|all the world|a- gainst us|
 g2 ^f2 g4 || e4 d2 c2 | B4 c4 | d2 f2 e2 d2 | c8 |] %20
w: fu- rious- ly|made their up-|roars and|said we should all|die.|
V:4
 C,4 G,2 E,2 | D,4 A,2 C2 | F,4 G,2 G,2 |[M:2/4] C,4 || C4 |[M:4/4] _B,2 G,2 F,4 | C2 C,2 F,2 C,2 | %7
w: Now Is- ra-|el may stay|and that tru-|lu,|if|that the Lord|had _ not our|
 G,2 A,2 E,4 || E,4 C,3 D, | E,4 A,4 | F,3 G, A,2 _B,2 |[M:2/4] A,4 || G,4 |[M:4/4] G,4 G,4 | %14
w: cause main- tained,|if that the|Lord had|not our right sus-|tain'd,|when|all the|
 G,2 G,2 C,2 C,2 | D,2 D,2 G,4 || C,4 G,2 C,2 | G,4 C,4 | F,2 F,2 G,2 G,2 | C,8 |] %20
w: world a- gainst us|fu- rious- ly|made their up-|roars and|said we should all|die.|

